img/general/logos/ram_logo_black.svg

<svg width="68" height="17" viewBox="0 0 68 17" fill="none" xmlns="http://www.w3.org/2000/svg">
    <path d="M0.450687 17C0.330972 16.9995 0.216342 16.9556 0.13188 16.8778C0.0474171 16.8 -1.19295e-06 16.6947 0 16.585V7.41505C0 7.18714 0.202102 7 0.450687 7H4.54931C4.7979 7 5 7.18714 5 7.41505V16.585C5 16.8129 4.7979 17 4.54931 17H0.450687Z" fill="black"/>
    <path d="M0.545833 0.0190499H14.3271C21.0293 0.891817 21.2333 10.1807 15.1816 11.9619L19.2834 16.0479C19.5738 16.2919 19.6767 16.7274 19.1475 16.763H13.1454L5.57206 8.81805L5.56838 8.18928H12.4103C14.6321 8.11983 15.1798 3.75412 12.2743 3.71846H0.545833C0.170934 3.71846 2.40232e-05 3.63212 2.40232e-05 3.1948V0.576495C-0.00181372 0.208619 0.1011 0.0190499 0.545833 0.0190499ZM46.0244 16.8513H49.812C50.0509 16.8513 50.2384 16.7555 50.2292 16.3802L50.2328 10.573C50.2384 10.2332 50.5636 10.1713 50.7272 10.4941L53.8734 16.4308C54.0021 16.7368 54.2318 16.8494 54.5993 16.8494H58.5229C59.0191 16.8494 58.9934 16.7274 59.19 16.4046L62.4042 10.4228C62.61 10.0737 62.9004 10.1788 62.9004 10.4585L62.9022 16.5716C62.9004 16.9376 63.0382 16.9995 63.3451 16.9995H67.5775C67.9101 17.0089 68.0222 16.8775 67.9965 16.4928V0.497664C68.0057 0.218003 67.9193 -0.00910384 67.5866 0.000280757H63.483C63.2441 0.000280757 63.0052 0.0359423 62.7313 0.490157L57.0215 11.0178C56.6796 11.5415 56.2349 11.3688 56.0291 10.9821L50.4901 0.462003C50.3192 0.148557 50.2163 0.00778856 49.6356 0.00778856H46.0446C45.6348 0.00778856 45.5319 0.112896 45.5319 0.570864V16.2469C45.5282 16.6073 45.6128 16.8513 46.0244 16.8513Z" fill="black"/>
    <path d="M20.1454 16.2593L29.4861 0.447816C29.615 0.209737 29.6758 0 30.0517 0H34.0274C34.3185 0.00944759 34.4051 0.105813 34.5598 0.447816L43.9097 16.5049C44.0626 16.76 44.0295 16.9981 43.7476 16.9981H39.2062C38.9999 16.9981 38.7954 16.9981 38.6922 16.7525L37.7674 15.0292C37.7226 14.9202 37.649 14.8262 37.555 14.7577C37.4609 14.6893 37.35 14.6492 37.2349 14.6419H26.5402C26.3007 14.6419 26.1625 14.7553 26.0519 14.9669L25.1437 16.5919C24.9908 16.8205 24.9852 17 24.6776 17L20.4107 16.9943C19.8801 16.9717 19.9483 16.5749 20.1454 16.2593Z" fill="black"/>
</svg>

<svg width="68" height="17" fill="none" xmlns="http://www.w3.org/2000/svg"><path d="M.45 17a.474.474 0 01-.318-.122.398.398 0 01-.132-.293v-9.17C0 7.187.202 7 .45 7h4.1c.248 0 .45.187.45.415v9.17c0 .228-.202.415-.45.415H.45z" fill="#000"/><path d="M.546.019h13.781c6.702.873 6.906 10.162.855 11.943l4.101 4.086c.29.244.394.68-.136.715h-6.002L5.572 8.818l-.004-.629h6.842c2.222-.07 2.77-4.435-.136-4.47H.546C.17 3.718 0 3.631 0 3.194V.576C-.002.21.101.02.546.02zm45.478 16.832h3.788c.239 0 .426-.095.417-.47l.004-5.808c.005-.34.33-.402.494-.079l3.146 5.937c.13.306.359.418.726.418h3.924c.496 0 .47-.122.667-.444l3.214-5.982c.206-.35.496-.244.496.036l.002 6.113c-.002.366.136.428.443.428h4.233c.332.009.444-.122.418-.507V.498c.01-.28-.077-.507-.41-.498h-4.103c-.239 0-.478.036-.752.49l-5.71 10.528c-.341.523-.786.35-.992-.036L50.49.462c-.17-.313-.274-.454-.854-.454h-3.591c-.41 0-.513.105-.513.563v15.676c-.004.36.08.604.492.604zm-25.879-.591L29.486.447c.129-.238.19-.448.566-.448h3.975c.291.01.378.106.533.448l9.35 16.057c.153.255.12.493-.162.493h-4.542c-.206 0-.41 0-.514-.245l-.925-1.724a.634.634 0 00-.212-.271.61.61 0 00-.32-.116H26.54c-.24 0-.377.113-.488.325l-.908 1.625c-.153.229-.159.408-.466.408l-4.267-.006c-.53-.022-.463-.42-.266-.735z" fill="#000"/></svg>
